apps/scalable/ebook/ebook.svg

<svg xmlns="http://www.w3.org/2000/svg" style="isolation:isolate" width="256" height="256"><defs><filter id="a" width="270.648" height="254.338" x="-7.32" y="2.95" filterUnits="userSpaceOnUse"><feGaussianBlur xmlns="http://www.w3.org/2000/svg" in="SourceGraphic" stdDeviation="4.294"/><feOffset xmlns="http://www.w3.org/2000/svg" dy="4" result="pf_100_offsetBlur"/><feFlood xmlns="http://www.w3.org/2000/svg" flood-opacity=".4"/><feComposite xmlns="http://www.w3.org/2000/svg" in2="pf_100_offsetBlur" operator="in" result="pf_100_dropShadow"/><feBlend xmlns="http://www.w3.org/2000/svg" in="SourceGraphic" in2="pf_100_dropShadow"/></filter></defs><g filter="url(#a)"><linearGradient id="b" x1=".233" x2=".933" y1="-.071" y2=".995" gradientTransform="matrix(244.648 0 0 228.338 5.676 11.947)" gradientUnits="userSpaceOnUse"><stop offset="0%" stop-color="#e8e8e8"/><stop offset="100%" stop-color="#f5f5f5"/></linearGradient><path fill="url(#b)" d="M165.685 11.947c74.055 0 84.639 10.557 84.639 84.544v59.251c0 73.986-10.584 84.543-84.639 84.543h-75.37c-74.055 0-84.639-10.557-84.639-84.543V96.491c0-73.987 10.584-84.544 84.639-84.544h75.37z"/></g><path fill="#BC1938" d="M165.685 11.947c60.867 0 78.171 6.766 82.648 50.386-17.333 0-210.666.334-241.314.002 4.54-43.296 22.598-50.388 83.296-50.388h75.37z"/><path fill="#5D5D5D" d="M70.794 91.483l-20.371 53.681h-5.004v4.129h14.452v-4.129h-4.627l4.827-12.397h23.952l4.821 12.397h-6.251v4.129h20.732v-4.129h-5.72L77.228 91.483h-6.434zm1.253 9.293l10.546 27.879H61.678l10.369-27.879z"/><path fill="#E3DFD5" fill-opacity=".996" d="M111.488 95.613v4.129h99.103v-4.129h-99.103zm0 16.517v4.13h99.103v-4.13h-99.103zm0 16.441v4.129h99.103v-4.129h-99.103zm0 16.517v4.13h99.103v-4.13h-99.103zm-66.069 16.517v4.13l165.172.076v-4.129l-165.172-.077zm0 16.518v4.129h165.172v-4.129H45.419zm0 16.517v4.129h123.879v-4.129H45.419z"/><g opacity=".4"><linearGradient id="c" x1=".517" x2=".517" y2="1"><stop offset="0%" stop-color="#fff"/><stop offset="12.5%" stop-opacity=".098" stop-color="#fff"/><stop offset="92.5%" stop-opacity=".098"/><stop offset="100%" stop-opacity=".498"/></linearGradient><path fill="none" stroke="url(#c)" stroke-linecap="round" stroke-linejoin="round" stroke-width="4.077" d="M165.685 11.947c74.055 0 84.639 10.557 84.639 84.544v59.251c0 73.986-10.584 84.543-84.639 84.543h-75.37c-74.055 0-84.639-10.557-84.639-84.543V96.491c0-73.987 10.584-84.544 84.639-84.544h75.37z" vector-effect="non-scaling-stroke"/></g></svg>

<svg xmlns="http://www.w3.org/2000/svg" style="isolation:isolate" width="256" height="256" viewBox="0 0 256 256">
 <defs>
  <filter id="f2G0wRZwYFZAvYpVhkpMD9w95tCz7WER" width="270.648" height="254.338" x="-7.32" y="2.95" filterUnits="userSpaceOnUse">
   <feGaussianBlur xmlns="http://www.w3.org/2000/svg" in="SourceGraphic" stdDeviation="4.294"/>
   <feOffset xmlns="http://www.w3.org/2000/svg" dx="0" dy="4" result="pf_100_offsetBlur"/>
   <feFlood xmlns="http://www.w3.org/2000/svg" flood-opacity=".4"/>
   <feComposite xmlns="http://www.w3.org/2000/svg" in2="pf_100_offsetBlur" operator="in" result="pf_100_dropShadow"/>
   <feBlend xmlns="http://www.w3.org/2000/svg" in="SourceGraphic" in2="pf_100_dropShadow" mode="normal"/>
  </filter>
 </defs>
 <g filter="url(#f2G0wRZwYFZAvYpVhkpMD9w95tCz7WER)">
  <linearGradient id="_lgradient_115" x1=".233" x2=".933" y1="-.071" y2=".995" gradientTransform="matrix(244.648,0,0,228.338,5.676,11.947)" gradientUnits="userSpaceOnUse">
   <stop offset="0%" style="stop-color:rgb(232,232,232)"/>
   <stop offset="100%" style="stop-color:rgb(245,245,245)"/>
  </linearGradient>
  <path fill="url(#_lgradient_115)" d="M 165.685 11.947 C 239.74 11.947 250.324 22.504 250.324 96.491 L 250.324 155.742 C 250.324 229.728 239.74 240.285 165.685 240.285 L 90.315 240.285 C 16.26 240.285 5.676 229.728 5.676 155.742 L 5.676 96.491 C 5.676 22.504 16.26 11.947 90.315 11.947 L 165.685 11.947 Z"/>
 </g>
 <g>
  <path fill="#BC1938" d="M 165.685 11.947 C 226.552 11.947 243.856 18.713 248.333 62.333 C 231 62.333 37.667 62.667 7.019 62.335 C 11.559 19.039 29.617 11.947 90.315 11.947 L 165.685 11.947 Z"/>
  <path fill="#5D5D5D" d="M 70.794 91.483 L 50.423 145.164 L 45.419 145.164 L 45.419 149.293 L 59.871 149.293 L 59.871 145.164 L 55.244 145.164 L 60.071 132.767 L 84.023 132.767 L 88.844 145.164 L 82.593 145.164 L 82.593 149.293 L 103.325 149.293 L 103.325 145.164 L 97.605 145.164 L 77.228 91.483 L 70.794 91.483 Z M 72.047 100.776 L 82.593 128.655 L 61.678 128.655 L 72.047 100.776 Z"/>
  <path fill="#E3DFD5" fill-opacity=".996" d="M 111.488 95.613 L 111.488 99.742 L 210.591 99.742 L 210.591 95.613 L 111.488 95.613 Z M 111.488 112.13 L 111.488 116.26 L 210.591 116.26 L 210.591 112.13 L 111.488 112.13 Z M 111.488 128.571 L 111.488 132.7 L 210.591 132.7 L 210.591 128.571 L 111.488 128.571 Z M 111.488 145.088 L 111.488 149.218 L 210.591 149.218 L 210.591 145.088 L 111.488 145.088 Z M 45.419 161.605 L 45.419 165.735 L 210.591 165.811 L 210.591 161.682 L 45.419 161.605 Z M 45.419 178.123 L 45.419 182.252 L 210.591 182.252 L 210.591 178.123 L 45.419 178.123 Z M 45.419 194.64 L 45.419 198.769 L 169.298 198.769 L 169.298 194.64 L 45.419 194.64 Z"/>
 </g>
 <g opacity=".4">
  <linearGradient id="_lgradient_116" x1=".517" x2=".517" y1="0" y2="1">
   <stop offset="0%" style="stop-color:rgb(255,255,255)"/>
   <stop offset="12.5%" stop-opacity=".098" style="stop-color:rgb(255,255,255)"/>
   <stop offset="92.5%" stop-opacity=".098" style="stop-color:rgb(0,0,0)"/>
   <stop offset="100%" stop-opacity=".498" style="stop-color:rgb(0,0,0)"/>
  </linearGradient>
  <path fill="none" stroke="url(#_lgradient_116)" stroke-linecap="round" stroke-linejoin="round" stroke-width="4.077" d="M 165.685 11.947 C 239.74 11.947 250.324 22.504 250.324 96.491 L 250.324 155.742 C 250.324 229.728 239.74 240.285 165.685 240.285 L 90.315 240.285 C 16.26 240.285 5.676 229.728 5.676 155.742 L 5.676 96.491 C 5.676 22.504 16.26 11.947 90.315 11.947 L 165.685 11.947 Z" vector-effect="non-scaling-stroke"/>
 </g>
</svg>
